X:1
T: Gollochy's Farewell
C:William Marshall
R:Strathspey
Q: 128
K:Bb
M:4/4
L:1/16
|:BG3 F3E D3C B,3d|ec3 f3d ccc2 c4|cB_AG AGFE D3C B,3d|ec3 f3d BBB2 B4|
BG3 F3E D3C B,3d|ec3 f3d ccc2 c4|cB_AG AGFE D3C B,3d|ec3 f3d BBB2 B4|
B3f d3f B3f d3f|e3g d3f ccc2 c4|B3f d3f B3f d3f|eg3 f3d BBB2 B4|
B3f d3f B3f d3f|e3g d3f ccc2 c2ga|b3g a3f g3e f3d|ec3 f3d BBB2 B4:|
